svgs/sharp-regular/truck-pickup.svg

<svg xmlns="http://www.w3.org/2000/svg" viewBox="0 0 640 512"><!--! Font Awesome Pro 6.6.0 by @fontawesome - https://fontawesome.com License - https://fontawesome.com/license (Commercial License) Copyright 2024 Fonticons, Inc. --><path d="M248 32l-24 0 0 24 0 120L80 176l-48 0 0 48 0 96-8 0L0 320l0 48 24 0 8 0 48 0 1.3 0c-.9 5.2-1.3 10.5-1.3 16c0 53 43 96 96 96s96-43 96-96c0-5.5-.5-10.8-1.3-16l98.7 0c-.9 5.2-1.3 10.5-1.3 16c0 53 43 96 96 96s96-43 96-96c0-5.5-.5-10.8-1.3-16l1.3 0 48 0 8 0 24 0 0-48-24 0-8 0 0-96 0-48-48 0-52.3 0L402.9 41.3 395.7 32 384 32 248 32zM560 320l-16 0-8.4 0c-17.6-19.6-43.1-32-71.6-32s-54 12.4-71.6 32l-8.4 0-128 0-8.4 0c-17.6-19.6-43.1-32-71.6-32s-54 12.4-71.6 32L96 320l-16 0 0-96 480 0 0 96zM446.9 176L272 176l0-96 100.3 0 74.7 96zM128 384a48 48 0 1 1 96 0 48 48 0 1 1 -96 0zm336-48a48 48 0 1 1 0 96 48 48 0 1 1 0-96z"/></svg>

<svg xmlns="http://www.w3.org/2000/svg" viewBox="0 0 640 512"><!--! Font Awesome Pro 6.4.0 by @fontawesome - https://fontawesome.com License - https://fontawesome.com/license (Commercial License) Copyright 2023 Fonticons, Inc. --><path d="M248 32H224V56 176H80 32v48 96H24 0v48H24h8H80h1.3c-.9 5.2-1.3 10.5-1.3 16c0 53 43 96 96 96s96-43 96-96c0-5.5-.5-10.8-1.3-16h98.7c-.9 5.2-1.3 10.5-1.3 16c0 53 43 96 96 96s96-43 96-96c0-5.5-.5-10.8-1.3-16H560h48 8 24V320H616h-8V224 176H560 507.7L402.9 41.3 395.7 32H384 248zM560 320H544h-8.4c-17.6-19.6-43.1-32-71.6-32s-54 12.4-71.6 32H384 256h-8.4c-17.6-19.6-43.1-32-71.6-32s-54 12.4-71.6 32H96 80V224H560v96zM446.9 176H272V80H372.3l74.7 96zM128 384a48 48 0 1 1 96 0 48 48 0 1 1 -96 0zm336-48a48 48 0 1 1 0 96 48 48 0 1 1 0-96z"/></svg>
